src/components/home/firmwareupdateicon.svg

<svg viewBox="0 0 96 96" xmlns="http://www.w3.org/2000/svg" xmlns:xlink="http://www.w3.org/1999/xlink" id="Icons_Download_M" overflow="hidden"><path d="M33.266 46.707 47.973 61.414 62.68 46.707 63.68 45.707 62.266 44.293 61.266 45.293 48.99 57.569C48.9861 57.5729 48.9797 57.5728 48.9759 57.5689 48.9741 57.567 48.973 57.5646 48.973 57.562L48.973 18 46.973 18 46.973 57.562C46.9729 57.5675 46.9684 57.5719 46.9629 57.5719 46.9603 57.5718 46.9578 57.5708 46.956 57.569L34.68 45.293 33.68 44.293 32.266 45.707Z" stroke="#000000" stroke-width="1.33333"/><path d="M75 76 21 76 21 56 19 56 19 78 77 78 77 56 75 56 75 76Z" stroke="#000000" stroke-width="1.33333"/></svg>

<svg viewBox="0 0 96 96" xmlns="http://www.w3.org/2000/svg" overflow="hidden"><path d="M33.266 46.707l14.707 14.707L62.68 46.707l1-1-1.414-1.414-1 1L48.99 57.569a.01.01 0 01-.017-.007V18h-2v39.562a.01.01 0 01-.01.01.01.01 0 01-.007-.003L34.68 45.293l-1-1-1.414 1.414z" stroke="#000" stroke-width="1.333"/><path d="M75 76H21V56h-2v22h58V56h-2v20z" stroke="#000" stroke-width="1.333"/></svg>
